svgs/icsdroid.svg

<svg xmlns="http://www.w3.org/2000/svg" viewBox="0 0 192 192"><path d="M24.665 16.5c-4.727 0-8.165 3.868-8.165 8.595v141.81c0 4.727 3.868 8.595 8.595 8.595h141.81c4.727 0 8.595-3.868 8.595-8.595V24.665c0-4.727-3.868-8.165-8.595-8.165Zm104.424 15.041 25.784 19.337-25.784 19.338m4.297 85.946h22.346m-22.346-38.676 11.173-6.016m0 0v44.692m-34.378-22.776c6.016 0 11.173-5.156 11.173-11.172 0-6.017-5.157-11.173-11.173-11.173m0 44.691c6.016 0 11.173-5.156 11.173-11.173 0-6.016-5.157-11.173-11.173-11.173m-18.478 18.479c3.867 3.008 9.024 4.297 13.751 3.867h4.727m-18.478-40.824c3.867-3.008 9.024-4.297 13.751-3.867h4.727m-11.603 22.345h11.603M93.422 50.878h61.451" fill="none" stroke="#000" stroke-width="12" stroke-linecap="round" stroke-linejoin="round"/><path d="M62.481 101.157 36.697 81.389l25.784-19.338M98.149 81.389H36.697" fill="none" stroke="#000" stroke-width="12" stroke-linecap="round" stroke-linejoin="round"/></svg>

<svg
    xmlns="http://www.w3.org/2000/svg"
    viewBox="0 0 192 192"
    id="vector">
    <path
        id="path"
        d="M 24.665 16.5 C 19.938 16.5 16.5 20.368 16.5 25.095 L 16.5 166.905 C 16.5 171.632 20.368 175.5 25.095 175.5 L 166.905 175.5 C 171.632 175.5 175.5 171.632 175.5 166.905 L 175.5 24.665 C 175.5 19.938 171.632 16.5 166.905 16.5 Z M 129.089 31.541 L 154.873 50.878 L 129.089 70.216 M 133.386 156.162 L 155.732 156.162 M 133.386 117.486 L 144.559 111.47 M 144.559 111.47 L 144.559 156.162 M 110.181 133.386 C 116.197 133.386 121.354 128.23 121.354 122.214 C 121.354 116.197 116.197 111.041 110.181 111.041 M 110.181 155.732 C 116.197 155.732 121.354 150.576 121.354 144.559 C 121.354 138.543 116.197 133.386 110.181 133.386 M 91.703 151.865 C 95.57 154.873 100.727 156.162 105.454 155.732 L 110.181 155.732 M 91.703 114.908 C 95.57 111.9 100.727 110.611 105.454 111.041 L 110.181 111.041 M 98.578 133.386 L 110.181 133.386 M 93.422 50.878 L 154.873 50.878"
        fill="none"
        stroke="#000000"
        stroke-width="12"
        stroke-linecap="round"
        stroke-linejoin="round"/>
    <path
        id="path_1"
        d="M 62.481 101.157 L 36.697 81.389 L 62.481 62.051"
        fill="none"
        stroke="#000000"
        stroke-width="12"
        stroke-linecap="round"
        stroke-linejoin="round"/>
    <path
        id="path_2"
        d="M 98.149 81.389 L 36.697 81.389"
        fill="none"
        stroke="#000000"
        stroke-width="12"
        stroke-linecap="round"
        stroke-linejoin="round"/>
</svg>
